icons/svg/beach.svg

﻿<?xml version="1.0" encoding="utf-8"?>
<!DOCTYPE svg PUBLIC "-//W3C//DTD SVG 1.1//EN" "http://www.w3.org/Graphics/SVG/1.1/DTD/svg11.dtd">
<svg xmlns="http://www.w3.org/2000/svg" xmlns:xlink="http://www.w3.org/1999/xlink" version="1.1" baseProfile="full" width="24" height="24" viewBox="0 0 24.00 24.00" enable-background="new 0 0 24.00 24.00" xml:space="preserve">
	<path fill="#000000" fill-opacity="1" stroke-linejoin="round" d="M 14.9995,18.542C 17.1343,18.212 19.5044,18 22,18L 22,22L 5,22C 5,21.3521 8.19546,19.8644 12.9995,18.8973L 12.9995,12.395C 12.1555,12.6463 11.445,13.2073 10.9997,13.9462C 10.3873,12.9298 9.27289,12.25 7.99973,12.25C 6.72676,12.25 5.6125,12.9296 5,13.9458C 5.03491,10.3672 8.52224,7.42779 12.9995,7.04274L 12.9995,7C 12.9995,6.44772 13.4472,6 13.9995,6C 14.5517,6 14.9995,6.44772 14.9995,7L 14.9995,7.04269C 19.4769,7.42755 22.9646,10.3671 22.9995,13.9458C 22.387,12.9296 21.2727,12.25 19.9997,12.25C 18.7266,12.25 17.6122,12.9298 16.9997,13.9462C 16.5544,13.2071 15.8437,12.646 14.9995,12.3949L 14.9995,18.542 Z M 7,2C 7,4.76142 4.76142,7 2,7L 2,2L 7,2 Z "/>
</svg>

<svg xmlns="http://www.w3.org/2000/svg" version="1.1" baseProfile="full" width="24" height="24" viewBox="0 0 24.00 24.00" xml:space="preserve"><path fill="#000" fill-opacity="1" stroke-linejoin="round" d="M15 18.542c2.134-.33 4.504-.542 7-.542v4H5c0-.648 3.195-2.136 8-3.103v-6.502c-.845.25-1.555.812-2 1.55-.613-1.015-1.727-1.695-3-1.695s-2.388.68-3 1.696c.035-3.58 3.522-6.518 8-6.903V7c0-.552.447-1 1-1 .552 0 1 .448 1 1v.043c4.477.385 7.965 3.324 8 6.903-.613-1.016-1.727-1.696-3-1.696s-2.388.68-3 1.696c-.446-.74-1.156-1.3-2-1.55v6.146zM7 2c0 2.76-2.24 5-5 5V2h5z"/></svg>
